UNB/img/about/pictograms-3.svg

<svg width="51" height="50" viewBox="0 0 51 50" fill="none" xmlns="http://www.w3.org/2000/svg">
<path d="M44.6458 48.4375H43.5208V40.2547C43.5208 31.7875 37.7723 24.5109 29.5426 22.5609C29.3083 22.5047 29.1348 22.3062 29.1129 22.0672C29.0895 21.8266 29.2239 21.5984 29.4442 21.5C33.1004 19.8734 35.4614 16.2422 35.4614 12.2516C35.4614 6.66875 30.9192 2.12656 25.3364 2.12656C19.752 2.12656 15.2098 6.66875 15.2098 12.2516C15.2098 16.2438 17.5723 19.8734 21.227 21.5C21.4473 21.5984 21.5801 21.8266 21.5583 22.0672C21.5364 22.3062 21.3629 22.5062 21.1286 22.5609C12.8942 24.5109 7.14575 31.7875 7.14575 40.2547V48.4375H6.02075V40.2547C6.02075 31.7484 11.4848 24.3734 19.4754 21.85C16.1583 19.825 14.0817 16.1969 14.0817 12.25C14.0817 6.04688 19.1286 1 25.3333 1C31.5379 1 36.5848 6.04688 36.5848 12.25C36.5848 16.1953 34.5083 19.8234 31.1911 21.85C39.1817 24.3734 44.6458 31.7469 44.6458 40.2547V48.4375V48.4375ZM31.9817 36.3359L31.1848 35.5391L23.7708 42.9547L21.0426 40.2266L20.2473 41.0234L23.7708 44.5453L31.9817 36.3359Z" fill="#4A98F7"/>
</svg>

<svg width="51" height="50" fill="none" xmlns="http://www.w3.org/2000/svg"><path d="M44.646 48.438H43.52v-8.183c0-8.468-5.749-15.744-13.978-17.694a.562.562 0 01-.099-1.061 10.137 10.137 0 006.017-9.248c0-5.583-4.542-10.125-10.125-10.125-5.584 0-10.126 4.542-10.126 10.125 0 3.992 2.362 7.621 6.017 9.248a.56.56 0 01-.098 1.06c-8.235 1.95-13.983 9.228-13.983 17.695v8.182H6.02v-8.182c0-8.507 5.464-15.882 13.454-18.405a11.262 11.262 0 01-5.393-9.6C14.082 6.047 19.129 1 25.333 1c6.205 0 11.252 5.047 11.252 11.25 0 3.945-2.077 7.573-5.394 9.6 7.99 2.523 13.455 9.897 13.455 18.405v8.182zM31.982 36.335l-.797-.797-7.414 7.416-2.728-2.728-.796.796 3.524 3.522 8.21-8.21z" fill="#4A98F7"/></svg>
